src/lib/packages/icons/src/assets/line/file-list-search.svg

<svg xmlns="http://www.w3.org/2000/svg" width="24" height="24" fill="none"><path fill="currentColor" d="M12 20.25H6c-1.577 0-2.25-.673-2.25-2.25V6c0-1.577.673-2.25 2.25-2.25h5.25V6c0 2.418 1.332 3.75 3.75 3.75h2.25V12a.75.75 0 0 0 1.5 0V9a.747.747 0 0 0-.22-.53l-6-6a.749.749 0 0 0-.53-.22H6C3.582 2.25 2.25 3.582 2.25 6v12c0 2.418 1.332 3.75 3.75 3.75h6a.75.75 0 0 0 0-1.5ZM12.75 6V4.811l3.439 3.439H15c-1.577 0-2.25-.673-2.25-2.25Zm-5 6a.75.75 0 1 1-1.5 0 .75.75 0 0 1 1.5 0Zm0 4a.75.75 0 1 1-1.5 0 .75.75 0 0 1 1.5 0ZM14 12.75H9.5a.75.75 0 0 1 0-1.5H14a.75.75 0 0 1 0 1.5Zm-4.5 4a.75.75 0 0 1 0-1.5H11a.75.75 0 0 1 0 1.5H9.5Zm13.03 4.72-1.55-1.55a3.642 3.642 0 0 0 .603-2.003 3.67 3.67 0 0 0-3.666-3.667 3.671 3.671 0 0 0-3.667 3.667 3.671 3.671 0 0 0 3.667 3.667c.74 0 1.426-.224 2.003-.602l1.55 1.549a.748.748 0 0 0 1.06 0 .75.75 0 0 0 0-1.061Zm-6.78-3.553a2.17 2.17 0 0 1 2.167-2.167 2.17 2.17 0 0 1 2.166 2.167 2.17 2.17 0 0 1-2.166 2.167 2.17 2.17 0 0 1-2.167-2.167Z"/></svg>

<svg width="24" height="24" viewBox="0 0 24 24" fill="none" xmlns="http://www.w3.org/2000/svg">
<path d="M12 20.25H6C4.423 20.25 3.75 19.577 3.75 18V6C3.75 4.423 4.423 3.75 6 3.75H11.25V6C11.25 8.418 12.582 9.75 15 9.75H17.25V12C17.25 12.414 17.586 12.75 18 12.75C18.414 12.75 18.75 12.414 18.75 12V9C18.75 8.801 18.671 8.61 18.53 8.47L12.53 2.47C12.389 2.329 12.199 2.25 12 2.25H6C3.582 2.25 2.25 3.582 2.25 6V18C2.25 20.418 3.582 21.75 6 21.75H12C12.414 21.75 12.75 21.414 12.75 21C12.75 20.586 12.414 20.25 12 20.25ZM12.75 6V4.811L16.189 8.25H15C13.423 8.25 12.75 7.577 12.75 6ZM7.75 12C7.75 12.414 7.414 12.75 7 12.75C6.586 12.75 6.25 12.414 6.25 12C6.25 11.586 6.586 11.25 7 11.25C7.414 11.25 7.75 11.586 7.75 12ZM7.75 16C7.75 16.414 7.414 16.75 7 16.75C6.586 16.75 6.25 16.414 6.25 16C6.25 15.586 6.586 15.25 7 15.25C7.414 15.25 7.75 15.586 7.75 16ZM14 12.75H9.5C9.086 12.75 8.75 12.414 8.75 12C8.75 11.586 9.086 11.25 9.5 11.25H14C14.414 11.25 14.75 11.586 14.75 12C14.75 12.414 14.414 12.75 14 12.75ZM9.5 16.75C9.086 16.75 8.75 16.414 8.75 16C8.75 15.586 9.086 15.25 9.5 15.25H11C11.414 15.25 11.75 15.586 11.75 16C11.75 16.414 11.414 16.75 11 16.75H9.5ZM22.53 21.47L20.98 19.92C21.358 19.343 21.583 18.657 21.583 17.917C21.583 15.895 19.938 14.25 17.917 14.25C15.895 14.25 14.25 15.895 14.25 17.917C14.25 19.939 15.895 21.584 17.917 21.584C18.657 21.584 19.3429 21.36 19.9199 20.982L21.47 22.531C21.616 22.677 21.808 22.751 22 22.751C22.192 22.751 22.384 22.678 22.53 22.531C22.823 22.237 22.823 21.762 22.53 21.47ZM15.75 17.917C15.75 16.722 16.722 15.75 17.917 15.75C19.111 15.75 20.083 16.722 20.083 17.917C20.083 19.112 19.111 20.084 17.917 20.084C16.722 20.083 15.75 19.111 15.75 17.917Z" fill="currentColor"/>
</svg>
